!!!!SEGMENT: 003-1a-ME-violino.krn
!!!COM: Chopin, Fryderyk
!!!OPS: Op. 3
!!!PTL: INTRODUCTION | et | POLONAISE BRILLANTE | pour le | Pianoforte et Violoncelle | ou Violon
!!!PPR: Mechetti
!!!PPP: Vienna
!!!AGN: Polonaise
!!!NIFC-rismID: 1001013603
!!!NIFC-shelfmark: PL-Wbfc 4101/n
!!!OMD: M. M. ([quarter] = 89.)
!!!OMD: Lento.
**kern	**fing	**dynam
*part1	*	*part2
*staff1	*	*
*clefF4	*	*
*k[]	*	*
*C:	*	*
*M4/4	*	*
*I"Introduzione.	*	*
*met(c)	*	*
=1	=1	=1
!LO:TX:a:t=1	!	!
1r	.	.
=2	=2	=2
2r	.	.
4r	.	.
*clefC4	*	*
4G	.	.
!LO:TX:a:t=esspres.	!	!
.	.	.
=3	=3	=3
*	*	*
*	*	*
(>8eL	.	.
32fLL	.	.
32e	.	.
32d#X	.	.
32eJJ	.	.
!LO:TX:t=P:diminuendolike accent:problem	!	!
8f#X^<	.	.
8gJ)	.	.
(>8cL	.	.
32dnLL	.	.
32c	.	.
32B	.	.
32cJJ	.	.
!LO:TX:t=P:diminuendolike accent:problem	!	!
8d#X^<	.	.
8eJ)	.	.
=4	=4	=4
4.A	.	.
.	.	.
.	.	.
8qc/	.	.
(>16.B-XLL	.	.
32AJJk)	.	.
4A	.	.
.	.	.
4r	.	.
*	*	*
=5	=5	=5
!LO:TX:t=P:clefF4 w tym takcie niewidoczny, tylko w następnym systemie:problem	!	!
!LO:TX:a:t=1	!	!
1rc	.	.
*clefF4	*	*
!!LO:LB:g=original
=6	=6	=6
!LO:TX	!	!
2r	.	.
4r	.	.
*clefC4	*	*
(>4A	.	.
=7	=7	=7
*	*	*
8fL	.	.
32gLL	.	.
32f	.	.
32e	.	.
32fJJ	.	.
8g#X	2	.
8aJ)	3	.
(>8dL	.	.
32eLL	.	.
32d	.	.
32c#X	.	.
32dJJ	.	.
8.f#X	1	.
16gnJ	2	.
=8	=8	=8
*	*^	*
(>4g)	2	.	.
.	.	.	.
*clefG2	*	*	*
&(<32gLLL	.	.	.
32a)	.	.	.
32g	.	.	.
32f#X	.	.	.
32g'<	.	.	.
!LO:TX:a:t=rall.	!	!	!
32a'<	.	1	.
32b'<	.	2	.
32cc'<JJJ	.	3	.
8qqcc/&)	.	.	.
4g	.	4	.
4fn	.	.	.
*	*v	*v	*
=9	=9	=9
*clefC4	*	*
(>2e	.	.
2e-X^<	.	.
=10	=10	=10
4.d	.	.
8B	.	.
4c)	.	<
16qqd/LL	.	.
16qqc/	.	.
16qqB/	.	.
(>16qqc/JJ	.	.
8dL	.	.
8eJ	.	[[
!!LO:LB:g=original
=11	=11	=11
8g`>)	.	.
8r	.	.
[>4f	.	>
8fL]	.	.
8e	.	.
8d	.	.
8cJ	.	]
=12	=12	=12
(>4.d	.	.
32fLL	.	.
32eJJ)	.	.
4d	.	.
8eL	.	<
8fJ	.	[
=13	=13	=13
(>4g	.	.
8aL	.	.
8gJ)	.	.
4f	.	.
8.gL	.	.
16dJk	.	.
=14	=14	=14
(>4e	.	.
8fL	.	.
8eJ)	.	.
!LO:TX:a:t=P:note-head-side tuplet number:problem	!	!
(>20dLL	.	.
20e	.	.
20d	.	.
20c	.	.
20dJJ)	.	.
8.eL	.	.
(>16BJk	.	.
=15	=15	=15
*	*^	*
8c)	.	.	.
*clefG2	*	*	*
(>4cc	3	.	>
[>8b	2	.	.
8bL]	.	.	.
8a	.	1	.
8g	.	4	.
8f#XJ)	.	3	]
*	*v	*v	*
=16	=16	=16
*clefC4	*	*
4g^<	4	.
(>8eL	.	.
8aJ	.	.
4f	2	.
8gL	4	.
8fJ	2	.
!!LO:LB:g=original
=17	=17	=17
2e)	.	<
.	.	[>
2e-X	.	]
=18	=18	=18
4.d	.	.
8B	.	.
4c	.	.
16qqd/LL	.	.
16qqc/	.	.
16qqB/	.	.
16qqc/JJ	.	.
8dL	.	.
8eJ	.	.
=19	=19	=19
8g	.	.
8r	.	.
[>4f	.	.
8fL]^<	.	.
8eJ	.	.
(>12eL	.	.
12d	.	.
12cJ)	.	.
=20	=20	=20
(>2e^<	.	.
4d)	.	.
8eL	.	.
8fJ	.	.
=21	=21	=21
4g	.	<
8aL	.	.
8gJ	.	[>
4f	.	.
4g	.	]
=22	=22	=22
4e	.	<
8.fL	.	[
.	.	>
16eJ	.	.
4d	.	]
(>4G	.	<[
=23	=23	=23
4g)	.	.
!LO:TX:t=poco\ rall.:dur=3q:ext=s:problem:text with extention lines	!	!
(>12eL	.	.
12d	.	.
12cJ)	.	.
4d	.	.
*Xtuplet	*	*
(>12eL	.	.
12d	.	.
12cJ)	.	.
!!LO:LB:g=original
=24	=24	=24
!LO:TX:a:t=poco più mosso.	!	!
2d	.	.
4r	.	.
*clefF4	*	*
!	!	!LO:DY:rj
8GGL	.	f
8FFJ	.	.
=25	=25	=25
8EE-X	.	.
8r	.	.
[>4E-X^<	.	.
(>16E-LL]	.	.
16F	.	.
16E-	.	<
16DJJ	.	.
16E-LL	.	.
16G	.	.
16c	.	.
16dJJ	.	[
=26	=26	=26
8e-X)	.	.
4c^	.	<
4G^	.	.
(>8E-XL	.	.
8D	.	.
8CJ)	.	.
=27	=27	=27
8FF	.	.
8r	.	.
[4F^<	.	.
(>16FLL]	.	.
16G	.	.
16F	.	<
16EnJJ	.	.
16FLL	.	.
16A-X	2	.
16d	1	.
16e-XJJ)	.	[
=28	=28	=28
8f	.	.
!LO:TX:t=sempre cres.	!	!
4d^	.	.
4A-X^	.	.
8F^L	.	.
8E-X^	.	.
8D^J	.	.
!!LO:LB:g=original
=29	=29	=29
8GG	.	.
8r	.	.
[4G^<	.	.
(>16GLL]	.	.
16A-X	.	.
16G	.	<
16F#JJ	.	.
16GLL	.	.
16B-X	.	.
16d-X	.	.
16enJJ)	.	[
=30	=30	=30
*clefG2	*	*
4g	.	.
4b-X/	.	.
*clefF4	*	*
!	!	!LO:DY:rj
2GGT	.	f
=31	=31	=31
2AA-X	.	fp
4D-X	.	.
4F	.	.
=32	=32	=32
4A-X	.	.
!	!	!LO:DY:rj
(<2AA-X	.	f
16GGLL	.	.
16AA-	.	.
16BB-X	.	.
16AA-JJ)	.	.
=33	=33	=33
8GG	.	.
!	!	!LO:DY:rj
(>8DL	.	p
16G	.	.
16A)	.	.
[>8BJ	.	.
8B]L	.	.
(>16A	.	.
16GJ	.	.
16F#XL	.	.
16G	.	.
8AJ	.	.
!!LO:LB:g=original
=34	=34	=34
(>8DL)	.	.
16EL	.	.
16F#XJJ	.	.
16.GLL	.	.
32AJk)	.	.
[8BJ	.	.
8BL]	.	.
(>16AL	.	<
16G#XJJ	.	.
16ALL	.	.
16B	.	.
16c	.	.
16c#XJJ)	.	[
=35	=35	=35
1dT	.	<[
.	.	>
.	.	]
=36	=36	=36
!LO:TX:t=poco rall.	!	!
(>4B	.	.
4d	.	.
4e	.	.
8dL	.	.
8cJ	.	.
=37	=37	=37
[2B;>)	.	.
16B\LL]	.	.
(16c\	.	.
!LO:TX:t=rall.	!	!
16B\	.	.
16A\	.	.
16B\	.	.
16c	.	.
16A	.	.
16dJJ)	.	.
=38	=38	=38
(<8qd	.	.
2G;>)	.	.
!LO:TX:t=atacca.	!	!
2r;>	.	.
!!LO:LB:g=original
=39||	=39||	=39||
*M3/4	*	*
*I"Alla Polacca.	*	*
!LO:TX:a:t=1	!	!
!LO:TX:a:t=([quarter] = 96.)	!	!
!LO:TX:a:B:t=Allegro con spirito.	!	!
1rD	.	.
=40	=40	=40
4r	.	.
4r	.	.
*clefC4	*	*
8r	.	.
8g	.	.
=41	=41	=41
(>4.g	.	.
16eLL	1	.
16fJJ	2	.
16gLL	2	.
16a	3	.
16g	2	.
16f#XJJ	1	.
=42	=42	=42
8g)	2	.
16cLL	.	.
16dJJ	.	.
(>4.e	.	.
16fLL	.	.
16eJJ)	.	.
=43	=43	=43
8d`>	.	.
4G^^/	.	.
(>16ALL	.	.
16BJJ	.	<
16cLL	.	.
16d	.	.
16e	.	.
16fJJ)	.	[
!!LO:LB:g=original
=44	=44	=44
(>16eLL^<	.	.
16d	.	.
16dM	.	.
16cJJ	.	.
16eLL^<	.	.
16d	.	.
16dM	.	.
16cJJ	.	.
8d)	.	.
(>16eLL	.	<
16fJJ	.	.
=45	=45	=45
4.g)	.	[
(>16eLL	.	.
16fJJ	.	.
16gLL	.	.
16a	.	.
16g	.	.
16f#XJJ)	.	.
=46	=46	=46
8g	.	.
(>16cLL	.	.
16dJJ	.	.
4.e^<)	.	.
(>16fLL	.	.
16eJJ	.	.
=47	=47	=47
8d)	.	.
4A	.	.
(>16ALL	.	<
16BJJ	.	.
16cLL	.	.
16d	.	.
16e	.	.
16dJJ)	.	[
=48	=48	=48
(>16cLL	.	.
16B	.	.
16A	.	.
16BJJ	.	.
4d	.	.
8c)	.	.
8r	.	.
*clefF4	*	*
!!LO:LB:g=original
=49	=49	=49
!LO:TX:a:t=pizz.	!	!
4CC	.	.
4r	.	.
4r	.	.
=50	=50	=50
4C'<	.	.
4C'<	.	.
4C'<	.	.
=51	=51	=51
4GG	.	.
4r	.	.
4C	.	.
=52	=52	=52
4GG'<	.	.
4GG'<	.	.
4GG'<	.	.
=53	=53	=53
4C	.	.
4r	.	.
4r	.	.
=54	=54	=54
4C	.	.
4C	.	.
4AA	.	.
=55	=55	=55
4FF	.	.
4r	.	.
!LO:TX:a:t=coll'arco.	!	!
(<4FF	.	.
=56	=56	=56
4GG)	.	.
8r	.	.
(<8GGL	.	.
8CJ'<)	.	.
*clefC4	*	*
!!LO:LB:g=original
=57	=57	=57
[4d	.	.
8dL]	.	<
(>16c#XL	.	.
16dJJ	.	.
8eL`>)	.	.
(>16dL	.	.
16eJJ	.	[
=58	=58	=58
8fL)`>	.	>
(>16fL	.	.
16eJJ)	.	]
4d	.	<
4et	.	.
16qqd/LL	.	.
16qqe/JJ	.	[
=59	=59	=59
[4f	.	.
8fL]	.	.
(>16eL	.	.
16fJJ	.	.
8gL)	.	.
(>16fL	.	.
16gJJ)	.	.
=60	=60	=60
4.a	2	<
(>8aL	.	.
8b)`>	.	[
(>8bJ	.	.
=61	=61	=61
8g#XL	1	.
8eJ)	3	<
(>4a	.	.
.	.	[
8bL)	.	.
(>8bJ	.	.
=62	=62	=62
8g#XL	.	.
8eJ)	.	.
[2a^<	.	.
!!LO:LB:g=original
=63	=63	=63
4a]	.	.
8A^>L	.	<
8B^>	.	.
8c^>	.	.
8d^>J	.	[
=64	=64	=64
!LO:TX:t=dol.	!	!
(>2B	.	[
8f#XL	.	.
8g#XJ)	.	.
=65	=65	=65
(>2e	.	[
8BL	.	.
8AJ)	.	.
=66	=66	=66
(8G#X/L	.	<
8BJ	.	.
4e	.	.
8f#XL	.	.
8g#XJ	.	[
=67	=67	=67
2e	.	>
4B	.	]
=68	=68	=68
[2.E)	.	.
=69	=69	=69
4E]	.	.
4r	.	.
4r	.	.
=70	=70	=70
!LO:TX:t=P:multimeasure rest:problem	!	!
1r	.	.
=71	=71	=71
1r	.	.
=72	=72	=72
1r	.	.
=73	=73	=73
!LO:TX:t=P:page breaking:problem	!	!
1r	.	.
*clefF4	*	*
!!LO:PB:g=original
=74	=74	=74
4r	.	.
4r	.	.
4E	.	<
=75	=75	=75
[2.E	.	[
=76	=76	=76
4.E]	.	.
(>16D#XLL	.	.
16EJJ	.	.
16FLL	.	.
16E	.	.
16D#	.	<
16EJJ	.	.
=77	=77	=77
16G#X)	.	[
16r	.	.
(>16D#XLL	1	<
16EJ	2	.
8BJ)	2	[
(>16D#LL	.	<
16EJ	.	.
8eJ)	.	[
8r	.	.
=78	=78	=78
(<16qqGGn/LL	.	.
16qqD	.	.
16qqB/JJ)	.	.
[2.g	.	ff
=79	=79	=79
*clefC4	*	*
4g]	.	<
(>4g'>	.	.
4g'>)	.	[
=80	=80	=80
4.g	.	.
(>16eLL	.	.
16fJJ	.	.
16gLL	.	<
16a	.	[
16g	.	>
16f#XJJ)	.	]
!!LO:LB:g=original
=81	=81	=81
8g	.	.
(>16cLL	.	.
16dJJ	.	.
4.e^<	.	.
16fnLL	.	.
16eJJ	.	.
=82	=82	=82
8d`>)	.	.
4G^^	.	.
(>16ALL	.	.
16BJJ	.	<
16cLL	.	.
16d	.	.
16e	.	.
16fJJ)	.	[
=83	=83	=83
(>(>16eLL	.	.
16d)	.	.
(>16dT	.	.
16c#XJJ))	.	.
(>(>16eLL	.	.
16d)	.	.
(>16dT	.	.
16c#JJ))	.	.
8d	.	.
(>16eLL	.	<
16fJJ	.	.
=84	=84	=84
4.g)	.	[
(>16eLL	.	.
16fJJ	.	.
16gLL	2	.
16a	3	.
16g	2	.
16f#JJ)	1	.
=85	=85	=85
8g	2	.
(>16cLL	.	.
16dJJ	.	.
4.e^<	.	.
16fLL	.	.
16eJJ)	.	.
!!LO:LB:g=original
=86	=86	=86
8d	.	.
(>8AL	.	.
*clefG2	*	*
8ccJ)	3	.
(<16bLL	2	>
16aJJ	1	.
16gLL	4	.
16f	2	.
16e	1	.
16dJJ)	4	]
=87	=87	=87
*clefC4	*	*
(>16cLL	.	.
16B	.	.
16A	.	.
16BJJ	.	.
4d^<	.	.
8c)	.	.
8r	.	.
*clefF4	*	*
=88	=88	=88
!LO:TX:a:t=pizz.	!	!
4CC'<	.	.
4r	.	.
4r	.	.
=89	=89	=89
4C'<	.	.
4C'<	.	.
4C'<	.	.
=90	=90	=90
4GG'<	.	.
4r	.	.
4C'<	.	.
=91	=91	=91
4GG'<	.	.
4GG'<	.	.
4GG'<	.	.
=92	=92	=92
4C	.	.
4r	.	.
4C	.	.
=93	=93	=93
4C'<	.	.
4C'<	.	.
4AA'<	.	.
!!LO:LB:g=original
=94	=94	=94
4FF	.	.
4r	.	.
!LO:TX:a:t=coll'arco.	!	!
(<4FF	.	.
=95	=95	=95
4.GG)	.	.
8GGL	.	.
8CJ	.	.
8r	.	.
=96	=96	=96
!LO:TX:t=cantabile.	!	!
(>4A	.	<
4G	.	.
4c	.	[
=97	=97	=97
2C	.	.
8DL	.	.
8EJ)	.	.
=98	=98	=98
(>4F	.	<
8EL	.	.
8F	.	[
8.c	.	>
16B-XJk	.	]]
=99	=99	=99
4A	.	.
4G)	.	.
(>4A	.	.
=100	=100	=100
4B-X	.	<
4A	.	.
4d)	.	[
=101	=101	=101
(>2D	.	.
8EL	.	<
8F#XJ	.	.
=102	=102	=102
4.G	.	.
8GL	.	.
8A	.	.
8B-XJ	.	[
=103	=103	=103
2B-X	.	>
4C)	.	]
!!LO:LB:g=original
=104	=104	=104
4.C	.	.
(>16DLL	.	<
16EJJ	.	.
8FL	.	.
8F#XJ	.	.
=105	=105	=105
4G	.	[
.	.	>
8.B-XL	.	.
16AJk	.	.
16GLL	.	.
16F	.	.
16E	.	.
16DJJ)	.	]
=106	=106	=106
(>8CL	.	.
16DL	.	.
16EJJ	.	.
8F'>L	.	.
8E'>	.	.
8F'>	.	<
8F#X'>J)	.	.
=107	=107	=107
(>16GLL	.	.
16A	.	.
16B-X	.	.
16BnJJ)	.	[
(>4.c	.	.
8B-X	.	.
=108	=108	=108
4.A)	.	[
(>8A	.	.
8B-XL	.	.
8AJX)	.	.
=109	=109	=109
8A	.	]
4G#X^<	.	.
(>8G#L	.	.
8A	.	.
8GnJ)	.	.
!!LO:LB:g=original
=110	=110	=110
8G	.	]
4F#X^<	.	.
8F#	.	.
(>16GLL	.	.
16A	.	.
16B-X^<	.	.
16GJJ)	.	.
=111	=111	=111
(>16FLL	.	[
16E	.	.
16D	.	.
16EJJ	.	.
!LO:TX:t=P:diminuendolike accent:problem	!	!
4G^<	.	.
8F	.	.
8r)	.	.
=112	=112	=112
8C	.	ff
(<4C	.	.
4BB	.	.
[8BB-X	.	.
.	.	.
.	.	.
=113	=113	=113
8BB-X]	.	.
4AA	.	.
4AA-X	.	.
8GG)	.	.
=114	=114	=114
8CC`>	.	.
8r	.	.
4r	.	.
4r	.	.
=115	=115	=115
(>2F	.	<
4F#X	.	[
=116	=116	=116
2G	.	<
4G#	.	[[
=117	=117	=117
2A	.	>
4E)	.	]
!!LO:LB:g=original
=118	=118	=118
(>2F	.	<
4G	.	[
=119	=119	=119
4C)	.	<
(>4E	.	.
4A	.	[
=120	=120	=120
4G)	.	.
4r	.	.
(>4GG	.	.
=121	=121	=121
4C	.	<
4E	.	.
4A)	.	[
=122	=122	=122
2G	.	.
4GG	.	.
=123	=123	=123
4C	.	.
!LO:TX:t=con\ forza\ e\ cres.:dur=5q:ext=s:problem:text with extention lines	!	!
(>4FF	.	.
4GG	.	.
=124	=124	=124
4AA-X	.	.
4GG	.	.
4GG#	.	.
=125	=125	=125
4AA	.	.
4GG#X)	.	.
4AA	.	.
=126	=126	=126
4BB-X	.	.
4AA	.	.
4BBn	.	.
!!LO:LB:g=original
=127	=127	=127
4C	.	.
[>2B-X^<	.	fz
=128	=128	=128
4B-X]	.	.
[>2G^<	.	fz
=129	=129	=129
4G]	.	.
[>2E^<	.	fz
=130	=130	=130
4E]	.	.
(>2D-X^<	.	fz
=131	=131	=131
(>4C)	.	.
8c)	.	p
8r	.	.
4r	.	.
=132	=132	=132
(>4D-X	.	.
8c)	.	.
8r	.	.
4r	.	.
=133	=133	=133
(>4Dn	.	.
16c)	.	.
16r	.	.
(>8E-XL	.	.
16cJk)	.	.
16r	.	.
!LO:TX:a:t=rall.	!	!
[>8En	.	.
=134	=134	=134
8E]	.	.
(>4G	.	.
8B-XL	.	>
8d	.	.
8cJ)	.	]
!!LO:LB:g=original
=135	=135	=135
!LO:TX:a:t=a tempo.	!	!
(>4A	.	.
4G	.	.
4c	.	.
=136	=136	=136
2C	.	.
8DL	.	.
8EJ)	.	.
=137	=137	=137
(>4F	.	<
8EL	.	.
8F	.	[
8.c	.	>
16B-XJk	.	]]
=138	=138	=138
4A	.	.
4G)	.	.
(>4A	.	<
=139	=139	=139
4B-X	.	.
4A	.	.
4d)	.	[[
=140	=140	=140
2D	.	.
(>8EL	.	<
8F#XJ	.	[[
=141	=141	=141
2G	.	<
8AL	.	.
8B-XJ	.	.
=142	=142	=142
2B-X	.	[
4C)	.	.
=143	=143	=143
(>4.C	.	.
16DLL	.	<
16EJJ	.	.
8FL	.	.
8F#XJ	.	[[
!!LO:LB:g=original
=144	=144	=144
4G)	.	.
8.BL	.	>
(>16AJk	.	.
16GLL	.	.
16F	.	.
16E	.	.
16DJJ)	.	]
=145	=145	=145
8CL	.	.
(>16DL	.	.
16EJJ	.	.
8FL)	.	.
(>8E'>	.	.
8F'>	.	.
8F#XJ)'>	.	.
=146	=146	=146
16GLL	.	<
16A	.	.
16B-X	.	.
16BnJJ	.	[
4.c	.	.
[>8B-X	.	.
=147	=147	=147
8B-]	.	.
(>4A^<	.	.
16G#XLL	.	.
16AJJ	.	.
8B-L	.	.
8AJ)	.	.
=148	=148	=148
8A`>	.	.
4G#X	.	.
(>8G#	.	.
8AL	.	.
8BnJ	.	.
=149	=149	=149
8G#XL)	.	.
(>8EJ	.	.
4.A	.	<
8B	.	[
!!LO:LB:g=original
=150	=150	=150
8G#XL)	.	.
(>8EJ	.	.
4A	.	.
8B)	.	.
8B	.	.
=151	=151	=151
*clefC4	*	*
(>2B	.	.
8f#XL	.	.
8g#XJ)	.	.
=152	=152	=152
(>2e^<	.	.
8BL	.	.
8AJ)	.	.
=153	=153	=153
8.G#X/L	.	.
16BJ	.	.
(>4e	.	<
8f#XL	.	.
8g#XJ	.	[
=154	=154	=154
2e	.	>
4B)	.	]
=155	=155	=155
[<2.E	.	.
=156	=156	=156
4E]	.	.
4r	.	.
4r	.	.
=157	=157	=157
!LO:TX:t=P:multimeasure rest (4 measures):problem	!	!
1r	.	.
=158	=158	=158
1r	.	.
=159	=159	=159
1r	.	.
=160	=160	=160
!LO:TX:t=P:page breaking:problem	!	!
1r	.	.
*clefF4	*	*
!!LO:PB:g=original
=161	=161	=161
4r	.	.
4r	.	.
4E	.	.
=162	=162	=162
[>2.E	.	.
=163	=163	=163
4.E]	.	.
(>16D#XLL	.	<
16EJJ	.	.
16FLL	.	[
16E	.	>
16D#	.	.
16EJJ	.	]]
=164	=164	=164
16G#X)L	.	.
(>16D#XL	.	.
16EJJ	.	.
16BLL)	.	.
(>16D#	.	.
16EJJ	.	.
8e)	.	.
8r	.	.
=165	=165	=165
16qqGGn/LL	.	.
16qqD	.	.
16qqB/JJ	.	.
[>2.g	.	ff
=166	=166	=166
*clefC4	*	*
4g]	.	<
(>4g'>	.	.
4g'>)	.	[
=167	=167	=167
4.g	.	.
(>16eLL	.	.
16fJJ	.	.
16gLL	.	.
16a	.	.
16g	.	.
16f#XJJ)	.	.
!!LO:LB:g=original
=168	=168	=168
8g`>LL	.	.
(>16c	.	.
16dJJ	.	.
4.e)	.	.
(>16fLL	.	>
16eJJ)	.	.
=169	=169	=169
8d`>	.	]
4G^^>	.	.
(>16ALL	.	.
16BJJ	.	<
16cLL	.	.
16d	.	.
16e	.	.
16fJJ)	.	[
=170	=170	=170
(>(>16eLL	.	.
16d)	.	.
(>16dM	.	.
16c#XJJ))	.	.
(>(>16eLL	.	.
16d)	.	.
(>16dM	.	.
16c#JJ))	.	.
8d`>	.	.
(>16eLL	.	<
16fJJ	.	.
=171	=171	=171
4.g)	.	[
(>16eLL	.	.
16fJJ	.	.
16gLL	.	<
16a	.	.
16gM	.	.
32rc	.	.
32f#XJJk)	.	[
=172	=172	=172
8gL`>	.	.
(>16cL	.	.
16dJJ	.	.
4.e^<	.	.
16fLL	.	.
16eJJ)	.	.
!!LO:LB:g=original
=173	=173	=173
8d	.	.
[>8A^^>	.	.
16ALL]	.	.
(>16B	.	.
16A	.	<
16BJJ	.	.
16cLL	.	.
16d	.	.
16e	.	.
16dJJ)	.	[
=174	=174	=174
(>16cLL	.	.
16B	.	.
16A	.	.
16BJJ)	.	.
(>4d^<	.	.
8c)	.	.
8r	.	.
*clefF4	*	*
=175	=175	=175
!LO:TX:a:t=pizz.	!	!
4CC	.	.
4r	.	.
4r	.	.
=176	=176	=176
4C'<	.	.
4C'<	.	.
4C'<	.	.
=177	=177	=177
4GG	.	.
4r	.	.
4C	.	.
=178	=178	=178
4GG	.	.
4GG	.	.
4GG	.	.
=179	=179	=179
4C	.	.
4r	.	.
4r	.	.
=180	=180	=180
4C	.	.
4C	.	.
4AA	.	.
=181	=181	=181
4FF	.	.
4r	.	.
!LO:TX:a:t=coll	!	!
4FF	.	.
!!LO:LB:g=original
=182	=182	=182
!LO:TX:a:t=arco.	!	!
(>2GG	.	.
!LO:TX:t=cres-cen-do:dur=5q:ext=ud:problem:text with extention lines	!	!
4GG	.	.
=183	=183	=183
2.AA	.	.
=184	=184	=184
4AA-X)	.	.
.	.	.
4c 4E-X 4AAny	.	.
=185	=185	=185
!	!	!LO:DY:rj
4c 4En 4GG	.	f
4r	.	.
4r	.	.
=186	=186	=186
4r	.	.
4r	.	.
8r	.	.
8GG	.	.
=187	=187	=187
!	!	!LO:DY:rj
4c 4E 4GG 4CC	.	f
4r	.	.
4r	.	.
=188	=188	=188
4C'>	.	.
4C'>	.	.
4C'>	.	.
=189	=189	=189
!	!	!LO:DY:rj
*tuplet	*	*
(>24GGLL	1	p
24D	1	.
24B	3	.
24f	2	.
24B	.	.
24DJJ)	.	.
(>24GGLL	.	.
24D	.	.
24B	.	.
24f	.	.
24B	.	.
24DJJ)	.	.
*Xtuplet	*	*
(>24GGLL	.	.
24D	.	.
24c	4	.
24f	.	.
24c	.	.
24DJJ)	.	.
!!LO:LB:g=original
=190	=190	=190
*tuplet	*	*
(>24GGLL	.	.
24D	.	.
24c	.	.
24f	.	.
24c	.	.
24DJJ)	.	.
(>24GGLL	.	.
24D	.	.
24c	.	.
24f	.	.
24c	.	.
24DJJ)	.	.
(>\20GGLL	.	.
20D	.	.
20B	.	.
20D	.	.
20GGJJ)	.	.
=191	=191	=191
!	!	!LO:DY:rj
4c 4E 4GG 4CC	.	fz
4r	.	.
4r	.	.
=192	=192	=192
4C	.	.
4C	.	.
4C	.	.
=193	=193	=193
*Xtuplet	*	*
!	!	!LO:DY:rj
(>24GGLL	.	p
24D	.	.
24B	.	.
24f	.	.
24B	.	.
24DJJ)	.	.
(>24GGLL	.	.
24D	.	.
24B	.	.
24f	.	.
24B	.	.
24DJJ)	.	.
(>24GGLL	.	.
24D	.	.
24c	.	.
24f	.	.
24c	.	.
24DJJ)	.	.
!!LO:LB:g=original
=194	=194	=194
(>24GGLL	.	.
24D	.	.
24c	.	.
24f	.	.
24c	.	.
24DJJ)	.	.
(>24GGLL	.	.
24D	.	.
24c	.	.
24f	.	.
24c	.	.
24DJJ)	.	.
*tuplet	*	*
(>\20GGLL	.	.
20D	.	.
20B	.	.
20D	.	.
20GGJJ)	.	.
=195	=195	=195
4c 4E 4GG 4CC	.	.
4GG	.	f
4B/ 4D/ 4GG/	.	.
=196	=196	=196
4c 4E 4GG 4CC	.	.
(<2GG^<	.	.
=197	=197	=197
8CC`<)	.	.
8r	.	.
4r	.	.
4r	.	.
=198	=198	=198
!LO:TX:a:t=1	!	!
1r	.	.
=199	=199	=199
!LO:TX:a:t=pizz.	!	!
4r	.	.
4E-X'</	.	.
4EE-X'<	.	.
=200	=200	=200
4AA-X'<	.	.
4E-X'</	.	.
4EE-X'<	.	.
!!LO:LB:g=original
=201	=201	=201
4AA-X	.	.
4r	.	.
!LO:TX:a:t=col arco.	!	!
(>4A-X^<	.	.
=202	=202	=202
8GL	.	f
8F#	.	.
8G	.	.
8A-X	.	.
8G	.	.
8F#J	.	.
=203	=203	=203
4G)	.	.
4r	.	.
4r	.	.
=204	=204	=204
4r	.	.
4r	.	.
8r	.	.
8B 8D 8GG	.	.
=205	=205	=205
!	!	!LO:DY:rj
4c 4E 4GG 4CC	.	f
4r	.	.
4r	.	.
=206	=206	=206
4C	.	.
4C	.	.
4C	.	.
=207	=207	=207
!	!	!LO:DY:rj
(>24GGLL	.	p
24D	.	.
24B	.	.
24f	.	.
24B	.	.
24DJJ)	.	.
(>24GGLL	.	.
24D	.	.
24B	.	.
24f	.	.
24B	.	.
24DJJ)	.	.
*Xtuplet	*	*
(>24GGLL	.	.
24D	.	.
24c	.	.
24f	.	.
24c	.	.
24DJJ)	.	.
!!LO:LB:g=original
=208	=208	=208
(>24GGLL	.	.
24D	.	.
24c	.	.
24f	.	.
24c	.	.
24DJJ)	.	.
(>24GGLL	.	.
24D	.	.
24c	.	.
24f	.	.
24c	.	.
24DJJ)	.	.
*tuplet	*	*
!LO:TX:t=P:note-head-side tuplet number:problem	!	!
(>\20GGLL	.	.
20D	.	.
20B	.	.
20D	.	.
20GGJJ)	.	.
=209	=209	=209
!	!	!LO:DY:rj
4c 4E 4GG 4CC	.	fz
4r	.	.
4r	.	.
=210	=210	=210
4C	.	.
4C	.	.
4C	.	.
=211	=211	=211
!	!	!LO:DY:rj
*Xtuplet	*	*
(>24GGLL	.	p
24D	.	.
24B	.	.
24f	.	.
24B	.	.
24DJJ)	.	.
(>24GGLL	.	.
24D	.	.
24B	.	.
24f	.	.
24B	.	.
24DJJ)	.	.
*Xtuplet	*	*
(>24GGLL	.	.
24D	.	.
24c	.	.
24f	.	.
24c	.	.
24DJJ)	.	.
!!LO:LB:g=original
=212	=212	=212
(>24GGLL	.	.
24D	.	.
24c	.	.
24f	.	.
24c	.	.
24DJJ)	.	.
(>24GGLL	.	.
24D	.	.
24c	.	.
24f	.	.
24c	.	.
24DJJ)	.	.
*tuplet	*	*
(>\20GGLL	.	.
20D	.	.
20B	.	.
20D	.	.
20GGJJ)	.	.
=213	=213	=213
!	!	!LO:DY:rj
4c 4E 4GG 4CC	.	f
4GG	.	.
4B/ 4D/ 4GG/	.	.
=214	=214	=214
4c 4E 4GG 4CC	.	.
4GG	.	.
4GG	.	.
=215	=215	=215
8CC	.	.
8r	.	.
4r	.	.
4r	.	.
=216	=216	=216
!LO:TX:a:t=1	!	!
1r	.	.
=217	=217	=217
!LO:TX:t=dolce.	!	!
(>4G#X	.	.
4A	.	>
4F#	.	.
=218	=218	=218
4G)	.	]
4r	.	.
(>4G	.	.
!!LO:LB:g=original
=219	=219	=219
4c	.	<
4d	.	[>
4G)	.	]
=220	=220	=220
4c	.	.
(>8eL	.	>
8d	.	.
8c	.	.
8B)J	.	]
=221	=221	=221
4c	.	.
(>4A	.	.
4B)	.	.
=222	=222	=222
!LO:TX:a:t=P:$ przekreślony:problem	!	!
(>4c$	.	.
8eL	.	>
8d	.	.
8c	.	.
8B)J	.	]
=223	=223	=223
8c	.	.
8r	.	.
8r	.	.
!LO:TX:a:t=pizz.	!	!
8GGL'<	.	ff
8C'<	.	.
8GG'<J	.	.
=224	=224	=224
8C'>L	.	.
8G'>	.	.
8c'>	.	.
8G'>	.	.
8c'>	.	.
8G'>J	.	.
=225	=225	=225
4c	.	.
4r	.	.
4r	.	.
!!LO:LB:g=original
=226	=226	=226
!	!	!LO:DY:rj
4c 4E 4GG 4CC	.	ff
4c 4E 4GG 4CC	.	.
4c 4E 4GG 4CC	.	.
=227	=227	=227
4c 4E 4GG 4CC	.	.
4r	.	.
4r	.	.
=228	=228	=228
4c 4E 4GG 4CC	.	.
4c 4E 4GG 4CC	.	.
4c 4E 4GG 4CC	.	.
=229	=229	=229
4c 4E 4GG 4CC	.	.
4r	.	.
!LO:TX:a:t=coll'arco.	!	!
4r	.	.
=230	=230	=230
4r	.	.
4CC	.	.
4CC	.	.
=231	=231	=231
2.CC;>	.	.
==	==	==
*-	*-	*-
!!!system-decoration: {(s1,s2)}
!!!RDF**kern: N = linked
!!!RDF**kern: > = above
!!!RDF**kern: < = below
!!!RDF**dynam: < = "cresc." fontstyle="normal"
!!!RDF**dynam: > = "dim." fontstyle="italic"
!!!ENC: Jędrzej Mróz
!!!END: 2019-10-02
!!!EED: Emilia Ziętek
!!!EST: 2019-10-11
!!!rism-genre: Polonaise
!!!rism-key: C major
!!!rism-opus: op.  3
!!!rism-title: Polonaise in C major op.  3
!!!rism-permalink: https://opac.rism.info/search?id=1001013603&View=rism
